svg/color/devl.svg

<?xml version="1.0" encoding="UTF-8" ?>
<!DOCTYPE svg PUBLIC "-//W3C//DTD SVG 1.1//EN" "http://www.w3.org/Graphics/SVG/1.1/DTD/svg11.dtd">
<svg width="250pt" height="250pt" viewBox="0 0 250 250" version="1.1" xmlns="http://www.w3.org/2000/svg">
<g id="#ffffffff">
<path fill="#ffffff" opacity="1.00" d=" M 0.00 0.00 L 250.00 0.00 L 250.00 250.00 L 0.00 250.00 L 0.00 0.00 M 51.03 45.07 C 53.04 49.51 55.47 53.75 57.96 57.94 C 75.03 40.20 99.30 29.36 124.02 29.50 C 146.43 29.10 168.78 37.57 185.55 52.40 C 187.35 53.91 188.80 55.93 191.03 56.87 C 192.90 52.61 195.73 48.81 197.38 44.48 C 177.59 24.55 148.98 13.87 120.97 15.20 C 94.94 15.64 69.58 26.95 51.03 45.07 M 26.62 38.15 C 26.51 43.46 25.59 48.71 25.72 54.02 C 25.83 72.59 31.40 91.49 43.52 105.82 C 38.38 128.22 43.44 152.65 56.83 171.31 C 67.64 186.75 84.09 198.05 102.27 202.92 C 121.49 208.19 142.64 206.03 160.38 196.95 C 175.72 189.34 188.48 176.69 196.26 161.44 C 204.38 145.81 207.38 127.52 204.39 110.15 C 204.30 108.44 203.52 106.33 205.03 105.01 C 211.81 96.97 216.23 87.23 219.17 77.20 C 222.76 64.51 222.75 51.17 221.36 38.16 C 221.01 38.26 220.30 38.47 219.94 38.58 C 210.90 55.08 195.65 68.15 178.07 74.82 C 179.95 72.48 181.88 70.16 183.79 67.84 C 168.46 50.51 145.12 40.59 122.02 41.22 C 101.18 41.36 80.70 50.27 65.92 64.86 C 65.33 65.66 63.81 66.41 64.39 67.61 C 65.99 70.20 68.19 72.35 69.93 74.84 C 52.39 68.03 37.13 55.01 28.08 38.48 C 27.71 38.40 26.98 38.23 26.62 38.15 M 216.59 106.78 C 220.53 128.97 216.59 152.56 205.01 171.98 C 193.14 192.23 173.54 207.94 150.97 214.57 C 127.87 221.55 102.04 218.90 80.87 207.29 C 60.81 196.48 45.00 178.14 37.16 156.75 C 31.39 141.27 30.03 124.33 32.56 108.04 C 28.87 102.75 25.70 96.94 24.14 90.65 C 23.79 90.63 23.09 90.61 22.74 90.60 C 19.40 104.90 16.14 119.69 18.41 134.44 C 20.68 157.29 29.93 179.52 45.33 196.65 C 62.40 216.37 86.94 229.42 112.89 232.23 C 124.81 234.36 136.95 232.57 148.67 230.11 C 172.98 224.60 194.75 209.77 209.62 189.88 C 225.47 168.94 233.03 142.09 231.21 115.96 C 230.11 106.44 228.99 96.62 225.09 87.79 C 223.11 94.48 219.83 100.64 216.59 106.78 Z" />
<path fill="#ffffff" opacity="1.00" d=" M 74.74 127.01 C 74.80 119.77 76.84 112.73 79.06 105.90 C 82.29 109.12 85.41 112.47 89.16 115.09 C 87.55 116.78 85.71 118.51 85.21 120.90 C 83.54 126.09 87.39 132.52 93.03 132.71 C 97.68 132.86 101.18 128.70 101.92 124.40 C 106.43 127.76 111.49 130.28 116.02 133.61 C 108.64 136.85 100.92 139.34 92.99 140.83 C 88.61 141.81 83.59 141.91 79.80 139.16 C 75.98 136.43 74.81 131.45 74.74 127.01 Z" />
<path fill="#ffffff" opacity="1.00" d=" M 157.92 115.03 C 161.70 112.49 164.78 109.12 167.96 105.91 C 170.37 113.02 172.46 120.40 172.24 127.98 C 172.05 132.19 170.79 136.85 167.09 139.31 C 162.95 142.11 157.64 141.73 153.01 140.59 C 145.68 139.18 138.57 136.82 131.70 133.93 C 132.14 132.92 132.84 132.16 133.81 131.64 C 137.71 129.30 141.65 126.99 145.30 124.24 C 146.17 127.59 147.90 131.14 151.47 132.24 C 156.73 134.28 162.30 129.35 162.39 124.06 C 162.75 120.46 160.57 117.24 157.92 115.03 Z" />
</g>
<g id="#d51920ff">
<path fill="#d51920" opacity="1.00" d=" M 51.03 45.07 C 69.58 26.95 94.94 15.64 120.97 15.20 C 148.98 13.87 177.59 24.55 197.38 44.48 C 195.73 48.81 192.90 52.61 191.03 56.87 C 188.80 55.93 187.35 53.91 185.55 52.40 C 168.78 37.57 146.43 29.10 124.02 29.50 C 99.30 29.36 75.03 40.20 57.96 57.94 C 55.47 53.75 53.04 49.51 51.03 45.07 Z" />
<path fill="#d51920" opacity="1.00" d=" M 26.62 38.15 C 26.98 38.23 27.71 38.40 28.08 38.48 C 37.13 55.01 52.39 68.03 69.93 74.84 C 68.19 72.35 65.99 70.20 64.39 67.61 C 63.81 66.41 65.33 65.66 65.92 64.86 C 80.70 50.27 101.18 41.36 122.02 41.22 C 145.12 40.59 168.46 50.51 183.79 67.84 C 181.88 70.16 179.95 72.48 178.07 74.82 C 195.65 68.15 210.90 55.08 219.94 38.58 C 220.30 38.47 221.01 38.26 221.36 38.16 C 222.75 51.17 222.76 64.51 219.17 77.20 C 216.23 87.23 211.81 96.97 205.03 105.01 C 203.52 106.33 204.30 108.44 204.39 110.15 C 207.38 127.52 204.38 145.81 196.26 161.44 C 188.48 176.69 175.72 189.34 160.38 196.95 C 142.64 206.03 121.49 208.19 102.27 202.92 C 84.09 198.05 67.64 186.75 56.83 171.31 C 43.44 152.65 38.38 128.22 43.52 105.82 C 31.40 91.49 25.83 72.59 25.72 54.02 C 25.59 48.71 26.51 43.46 26.62 38.15 M 74.74 127.01 C 74.81 131.45 75.98 136.43 79.80 139.16 C 83.59 141.91 88.61 141.81 92.99 140.83 C 100.92 139.34 108.64 136.85 116.02 133.61 C 111.49 130.28 106.43 127.76 101.92 124.40 C 101.18 128.70 97.68 132.86 93.03 132.71 C 87.39 132.52 83.54 126.09 85.21 120.90 C 85.71 118.51 87.55 116.78 89.16 115.09 C 85.41 112.47 82.29 109.12 79.06 105.90 C 76.84 112.73 74.80 119.77 74.74 127.01 M 157.92 115.03 C 160.57 117.24 162.75 120.46 162.39 124.06 C 162.30 129.35 156.73 134.28 151.47 132.24 C 147.90 131.14 146.17 127.59 145.30 124.24 C 141.65 126.99 137.71 129.30 133.81 131.64 C 132.84 132.16 132.14 132.92 131.70 133.93 C 138.57 136.82 145.68 139.18 153.01 140.59 C 157.64 141.73 162.95 142.11 167.09 139.31 C 170.79 136.85 172.05 132.19 172.24 127.98 C 172.46 120.40 170.37 113.02 167.96 105.91 C 164.78 109.12 161.70 112.49 157.92 115.03 Z" />
<path fill="#d51920" opacity="1.00" d=" M 216.59 106.78 C 219.83 100.64 223.11 94.48 225.09 87.79 C 228.99 96.62 230.11 106.44 231.21 115.96 C 233.03 142.09 225.47 168.94 209.62 189.88 C 194.75 209.77 172.98 224.60 148.67 230.11 C 136.95 232.57 124.81 234.36 112.89 232.23 C 86.94 229.42 62.40 216.37 45.33 196.65 C 29.93 179.52 20.68 157.29 18.41 134.44 C 16.14 119.69 19.40 104.90 22.74 90.60 C 23.09 90.61 23.79 90.63 24.14 90.65 C 25.70 96.94 28.87 102.75 32.56 108.04 C 30.03 124.33 31.39 141.27 37.16 156.75 C 45.00 178.14 60.81 196.48 80.87 207.29 C 102.04 218.90 127.87 221.55 150.97 214.57 C 173.54 207.94 193.14 192.23 205.01 171.98 C 216.59 152.56 220.53 128.97 216.59 106.78 Z" />
</g>
</svg>

<?xml version="1.0" encoding="utf-8"?>
<!-- Generator: Adobe Illustrator 26.0.3, SVG Export Plug-In . SVG Version: 6.00 Build 0)  -->
<svg version="1.1" id="Layer_1" xmlns="http://www.w3.org/2000/svg" xmlns:xlink="http://www.w3.org/1999/xlink" x="0px" y="0px"
	 viewBox="0 0 250 250" style="enable-background:new 0 0 250 250;" xml:space="preserve">
<style type="text/css">
	.st0{fill:#FFFFFF;}
	.st1{fill:#D51920;}
</style>
<g id="_x23_ffffffff">
	<path class="st0" d="M74.7,127c0.1-7.2,2.1-14.3,4.3-21.1c3.2,3.2,6.4,6.6,10.1,9.2c-1.6,1.7-3.5,3.4-4,5.8
		c-1.7,5.2,2.2,11.6,7.8,11.8c4.7,0.1,8.2-4,8.9-8.3c4.5,3.4,9.6,5.9,14.1,9.2c-7.4,3.2-15.1,5.7-23,7.2c-4.4,1-9.4,1.1-13.2-1.7
		C76,136.4,74.8,131.4,74.7,127z"/>
	<path class="st0" d="M157.9,115c3.8-2.5,6.9-5.9,10-9.1c2.4,7.1,4.5,14.5,4.3,22.1c-0.2,4.2-1.5,8.9-5.2,11.3
		c-4.1,2.8-9.4,2.4-14.1,1.3c-7.3-1.4-14.4-3.8-21.3-6.7c0.4-1,1.1-1.8,2.1-2.3c3.9-2.3,7.8-4.7,11.5-7.4c0.9,3.3,2.6,6.9,6.2,8
		c5.3,2,10.8-2.9,10.9-8.2C162.8,120.5,160.6,117.2,157.9,115z"/>
</g>
<g id="_x23_d51920ff">
	<path class="st1" d="M51,45.1C69.6,27,94.9,15.6,121,15.2c28-1.3,56.6,9.3,76.4,29.3c-1.7,4.3-4.5,8.1-6.4,12.4
		c-2.2-0.9-3.7-3-5.5-4.5c-16.8-14.8-39.1-23.3-61.5-22.9C99.3,29.4,75,40.2,58,57.9C55.5,53.8,53,49.5,51,45.1z"/>
	<path class="st1" d="M26.6,38.2c0.4,0.1,1.1,0.2,1.5,0.3C37.1,55,52.4,68,69.9,74.8c-1.7-2.5-3.9-4.6-5.5-7.2
		c-0.6-1.2,0.9-1.9,1.5-2.8c14.8-14.6,35.3-23.5,56.1-23.6c23.1-0.6,46.4,9.3,61.8,26.6c-1.9,2.3-3.8,4.6-5.7,7
		c17.6-6.7,32.8-19.7,41.9-36.2c0.4-0.1,1.1-0.3,1.4-0.4c1.4,13,1.4,26.4-2.2,39c-2.9,10-7.4,19.8-14.1,27.8
		c-1.5,1.3-0.7,3.4-0.6,5.1c3,17.4,0,35.7-8.1,51.3c-7.8,15.2-20.5,27.9-35.9,35.5c-17.7,9.1-38.9,11.2-58.1,6
		c-18.2-4.9-34.6-16.2-45.4-31.6c-13.4-18.7-18.5-43.1-13.3-65.5C31.4,91.5,25.8,72.6,25.7,54C25.6,48.7,26.5,43.5,26.6,38.2
		 M74.7,127c0.1,4.4,1.2,9.4,5.1,12.2c3.8,2.8,8.8,2.6,13.2,1.7c7.9-1.5,15.7-4,23-7.2c-4.5-3.3-9.6-5.8-14.1-9.2
		c-0.7,4.3-4.2,8.5-8.9,8.3c-5.6-0.2-9.5-6.6-7.8-11.8c0.5-2.4,2.3-4.1,4-5.8c-3.8-2.6-6.9-6-10.1-9.2
		C76.8,112.7,74.8,119.8,74.7,127 M157.9,115c2.7,2.2,4.8,5.4,4.5,9c-0.1,5.3-5.7,10.2-10.9,8.2c-3.6-1.1-5.3-4.7-6.2-8
		c-3.7,2.8-7.6,5.1-11.5,7.4c-1,0.5-1.7,1.3-2.1,2.3c6.9,2.9,14,5.2,21.3,6.7c4.6,1.1,9.9,1.5,14.1-1.3c3.7-2.5,5-7.1,5.2-11.3
		c0.2-7.6-1.9-15-4.3-22.1C164.8,109.1,161.7,112.5,157.9,115z"/>
	<path class="st1" d="M216.6,106.8c3.2-6.1,6.5-12.3,8.5-19c3.9,8.8,5,18.7,6.1,28.2c1.8,26.1-5.7,53-21.6,73.9
		c-14.9,19.9-36.6,34.7-60.9,40.2c-11.7,2.5-23.9,4.2-35.8,2.1c-25.9-2.8-50.5-15.9-67.6-35.6c-15.4-17.1-24.7-39.4-26.9-62.2
		c-2.3-14.8,1-29.5,4.3-43.8c0.4,0,1.1,0,1.4,0.1c1.6,6.3,4.7,12.1,8.4,17.4c-2.5,16.3-1.2,33.2,4.6,48.7
		c7.8,21.4,23.7,39.7,43.7,50.5c21.2,11.6,47,14.3,70.1,7.3c22.6-6.6,42.2-22.3,54-42.6C216.6,152.6,220.5,129,216.6,106.8z"/>
</g>
</svg>
